X:161
T: Weihnachtslied mit Echo
N: A0527
O: Europa, Mitteleuropa, Deutschland
N: Coelner Gsgb 1623 S. 103.
R: Romanze, Ballade, Lied, religioeses Lied
M: 4/2
L: 1/4
K: Bb
b2agf3f | g2a2b4 |
b2agf3f | g2a2b4 |
b2agf3f | g2a2b4 |
b2agf3f | g2a2b2
b2 | a3ag4 | a3ag4 |
b2c2d4 | b2c2d4 |
d2cba2g2 | a2^f2g4

@@@ Tune index: 474
